img/icons/icon-notifications.svg

<svg width="16" height="20" viewBox="0 0 16 20" fill="none" xmlns="http://www.w3.org/2000/svg">
<path d="M8 20C6.89543 20 6 19.1046 6 18H10C10 19.1046 9.10457 20 8 20ZM16 17H0V15L2 14V8.5C2 5.038 3.421 2.793 6 2.18V0H10V2.18C12.579 2.792 14 5.036 14 8.5V14L16 15V17ZM8 3.75C6.77967 3.6712 5.60278 4.21728 4.875 5.2C4.25255 6.18456 3.94714 7.33638 4 8.5V15H12V8.5C12.0528 7.33639 11.7474 6.18458 11.125 5.2C10.3972 4.21728 9.22033 3.6712 8 3.75Z" fill="#7583AA"/>
</svg>

<svg width="16" height="20" viewBox="0 0 16 20" fill="none" xmlns="http://www.w3.org/2000/svg"><path d="M8 20a2 2 0 01-2-2h4a2 2 0 01-2 2zm8-3H0v-2l2-1V8.5c0-3.462 1.421-5.707 4-6.32V0h4v2.18c2.579.612 4 2.856 4 6.32V14l2 1v2zM8 3.75A3.6 3.6 0 004.875 5.2 5.692 5.692 0 004 8.5V15h8V8.5a5.693 5.693 0 00-.875-3.3A3.6 3.6 0 008 3.75z" fill="#7583AA"/></svg>
